X: 596
T: Nhai zhengshiqi
L: 1/16
M: 2/4
K: G
e g e d B2 d2 [I:setbarnb 1]| 
e g e de4 | 
d e g2 g e d2 | 
e d B dA4 | 
d2 B2 d e d B | 
A2 d2G4 | 
E E B2 A B G E | 
D8 |]

@@@ Tune index: 9470
